static/images/mobile/copyright/wikipedia-wordmark-fr.svg

<?xml version="1.0" encoding="UTF-8"?>
<svg width="120px" height="18px" viewBox="0 0 120 18" version="1.1" xmlns="http://www.w3.org/2000/svg" xmlns:xlink="http://www.w3.org/1999/xlink">
    <title>wikipedia-wordmark-fr</title>
    <g id="Page-1" stroke="none" stroke-width="1" fill="none" fill-rule="evenodd">
        <path d="M18.3392401,0.0639920735 C18.406498,0.0640847999 18.4727969,0.0641829077 18.5379306,0.0642851551 L18.9131018,0.0649383791 C18.9727503,0.0650522173 19.0308213,0.0651677113 19.0871086,0.0652836192 L19.4017803,0.0659740994 C19.4501086,0.0660866957 19.496241,0.0661972222 19.5399714,0.0663044371 L19.7718793,0.0668980513 C19.8051768,0.0669870521 19.8356599,0.0670702574 19.8631224,0.0671464255 L20.0344947,0.0676431738 L20.0920418,0.121151953 L20.0920418,0.62191336 C20.0920418,0.760228506 20.0143027,0.828881279 19.8608435,0.828881279 C19.1076822,0.864217266 18.9532135,0.938927637 18.6775928,1.33570028 C18.5271624,1.5527642 18.2303402,2.01818962 17.9224123,2.54015262 L15.2792805,7.48315231 C15.2792805,7.48315231 15.2534608,7.53709089 15.2055156,7.63705505 L18.4352889,14.2474697 L18.6311512,14.3009785 L23.7195332,2.22515754 C23.8962132,1.73853053 23.868954,1.39324746 23.6417941,1.19031794 C23.4136245,0.992436416 23.2530982,0.875322862 22.663492,0.851092471 L22.1859514,0.82686208 C22.1273946,0.82686208 22.0718667,0.805660488 22.0183579,0.766286104 C21.9658587,0.728930918 21.9385995,0.679460537 21.9385995,0.61989416 L21.9385995,0.117113555 L22.0112907,0.0656239746 L27.7599509,0.0656239746 L27.8185076,0.117113555 L27.8185076,0.61989416 C27.8185076,0.756190108 27.7407685,0.824842881 27.5873093,0.824842881 C26.834148,0.858159668 26.2758394,1.0217148 25.9144028,1.31348909 C25.5519565,1.60728258 25.2692686,2.01213202 25.0663391,2.53813342 C25.0663391,2.53813342 23.2730636,6.6427419 21.5268975,10.6145704 L21.2588765,11.2240019 C20.2793156,13.4505522 19.3447779,15.5657023 18.7856199,16.8088239 C18.172793,17.975921 17.570062,17.8689035 17.0400222,16.7755071 C16.376368,15.4087026 14.9983311,12.3942776 13.9859573,10.1656466 C13.7054415,10.7442178 13.3978511,11.3766374 13.0833718,12.0195973 L12.8372933,12.521959 C12.01472,14.1986051 11.1807099,15.8713097 10.6856023,16.7896415 C9.97080574,18.0324586 9.38220917,17.8699131 8.91375495,16.8219487 C7.28728998,12.9844606 3.94753447,6.24639278 2.37558788,2.47049024 C2.08482319,1.77487611 1.86574008,1.32863309 1.65877216,1.15195315 C1.45079464,0.977292422 1.01868601,0.872294063 0.36143666,0.836958076 C0.120142354,0.810708487 8.36664071e-13,0.752151709 8.36664071e-13,0.657249346 L8.36664071e-13,0.131247949 L0.0585567774,0.0797583692 C0.121508282,0.0794020399 0.198678024,0.0790876317 0.288175444,0.0788114457 L0.591760176,0.0780938553 C0.647891284,0.077992135 0.706631672,0.0778990455 0.767745019,0.0778141244 L4.32201394,0.0779458985 C4.40114411,0.0780019987 4.47910244,0.078059332 4.55565261,0.0781174359 L5.56875335,0.0789889938 C5.62531394,0.0790432447 5.67928478,0.0790959543 5.73042954,0.0791466603 L6.30797836,0.0797583692 L6.36653514,0.131247949 L6.36653514,0.632009356 C6.36653514,0.770324502 6.27869997,0.836958076 6.10605844,0.836958076 L5.45385709,0.864217266 C4.89453891,0.887438057 4.61487982,1.05503159 4.61487982,1.36497867 C4.61487982,1.50935142 4.67343659,1.74357853 4.80367494,2.0595832 C6.05557846,5.10958362 10.3796936,14.2272777 10.3796936,14.2272777 L10.5382007,14.2686713 L13.3252055,8.70845403 C12.9845879,7.95594816 12.7673967,7.47406591 12.7673967,7.47406591 L10.8511766,3.70825937 C10.8511766,3.70825937 10.4806535,2.95509806 10.3544536,2.70471735 C9.51244752,1.0358492 9.53062031,0.947004434 8.67952784,0.834938877 C8.44126234,0.803641289 8.31809118,0.773353301 8.31809118,0.655230147 L8.31809118,0.127209551 L8.38977276,0.0757199707 L9.09272032,0.0750151954 C9.15757625,0.0749646406 9.22373943,0.0749160303 9.29101335,0.0748692896 L11.2340736,0.0740070915 C11.3054246,0.0739879465 11.3761179,0.0739699981 11.445957,0.0739531714 L13.348926,0.0737007715 L13.480174,0.117113555 L13.480174,0.643114951 C13.480174,0.763257305 13.394358,0.824842881 13.2196973,0.824842881 L12.8602798,0.876332461 C11.9516402,0.947004434 12.1000513,1.31853709 12.7037919,2.52097023 L14.542,6.282 L16.5756064,2.22717674 C16.8931591,1.53459141 16.8536456,1.32659594 16.7328688,1.16239825 L16.7058447,1.12772276 C16.6250768,1.0308012 16.3545041,0.876332461 15.7659075,0.852102071 L15.5347092,0.82686208 C15.4761524,0.82686208 15.421634,0.806670088 15.3681253,0.767295703 C15.3156261,0.729940518 15.2893765,0.681479736 15.2893765,0.61989416 L15.2893765,0.119132754 L15.3610581,0.0676431738 C15.6589248,0.0655543471 16.0335883,0.0643298624 16.44052,0.0637014757 Z M28.922,5.38116592 C29.6307389,5.38116592 31.6519574,5.32866674 31.6519574,5.32866674 L31.678207,5.38116592 L31.678207,5.9586569 C31.678207,6.03740567 31.6257078,6.08990485 31.5207094,6.08990485 L30.969468,6.14341362 C30.1557307,6.22115279 29.8669853,6.43215911 29.8669853,6.95816051 L29.8669853,15.6992739 C29.8669853,16.2767649 30.1294811,16.6180096 30.969468,16.6967583 L31.5207094,16.7502671 C31.5994582,16.7502671 31.678207,16.8017567 31.678207,16.9067551 L31.678207,17.4579964 L31.6519574,17.5115052 C31.6519574,17.5115052 29.6569885,17.4579964 28.8432512,17.4579964 C28.1082627,17.4579964 26.0607947,17.5115052 26.0607947,17.5115052 L26.0082955,17.4579964 L26.0082955,16.9067551 C26.0082955,16.8017567 26.0870443,16.7502671 26.1920427,16.7502671 L26.7170345,16.6967583 C27.5832709,16.6180096 27.8457668,16.1980161 27.8457668,15.6992739 L27.8457668,6.95816051 C27.8457668,6.38167913 27.5297622,6.22216239 26.7170345,6.14543282 L26.1920427,6.09091444 C26.0870443,6.09091444 26.0082955,6.06668405 26.0082955,5.98591609 L26.0082955,5.38116592 L26.0345451,5.32866674 C26.0345451,5.32866674 28.1082627,5.38116592 28.922,5.38116592 Z M37.6136431,15.6992739 C37.6136431,16.2767649 37.9548877,16.5655104 38.7161258,16.6967583 L39.0048713,16.7502671 C39.0836201,16.7755071 39.1623689,16.8017567 39.1623689,16.9067551 L39.1623689,17.4579964 L39.1361193,17.5115052 C39.1361193,17.5115052 37.4823951,17.4579964 36.6949074,17.4579964 C35.9599189,17.4579964 33.8074525,17.5115052 33.8074525,17.5115052 L33.7549533,17.4579964 L33.7549533,16.9067551 C33.7549533,16.8017567 33.8337021,16.7502671 33.9387005,16.7502671 L34.4636923,16.6967583 C35.25118,16.6180096 35.5924246,16.1980161 35.5924246,15.6992739 L35.5924246,6.95816051 C35.5924246,6.38167913 35.3036791,6.22216239 34.4636923,6.14543282 L33.9387005,6.09091444 C33.8337021,6.09091444 33.7549533,6.06668405 33.7549533,5.98591609 L33.7549533,5.38116592 L33.7812029,5.32866674 C33.7812029,5.32866674 35.9336693,5.38116592 36.7474066,5.38116592 C37.4834047,5.38116592 39.1361193,5.32866674 39.1361193,5.32866674 L39.1623689,5.38116592 L39.1623689,5.9586569 C39.1623689,6.03740567 39.1098697,6.06365526 39.0048713,6.08990485 L38.7161258,6.14341362 C37.9023885,6.29990156 37.6136431,6.43215911 37.6136431,6.95816051 L37.6136431,10.9218486 C38.4798795,10.9218486 38.9786217,10.4766151 40.1336037,9.24187483 C41.1835873,8.08588327 41.9973246,7.11666765 41.9973246,6.61691584 C41.9973246,6.40590952 41.7610783,6.17067281 41.2360865,6.09091444 C41.1310881,6.06567445 41.0785889,6.03841527 41.0785889,5.9596665 L41.0785889,5.35491633 L41.1048385,5.32967634 C41.1048385,5.32967634 43.2310553,5.38217552 43.9922934,5.38217552 C44.6747827,5.38217552 45.8297647,5.32967634 45.8297647,5.32967634 L45.9085134,5.35491633 L45.9085134,5.9596665 C45.9085134,6.03841527 45.8297647,6.09091444 45.6985167,6.09091444 C44.6747827,6.16966321 43.9660438,6.22216239 43.0210586,7.29839558 L40.7635938,9.89609537 C40.3173508,10.3695976 40.1598533,10.6573335 40.1598533,10.8683398 C40.1598533,11.0258373 40.2648516,11.1560757 40.3960996,11.3135732 L44.3597876,16.0909986 C44.6747827,16.4574832 45.3047729,16.6159904 45.8297647,16.7199791 L45.9610126,16.7452191 C46.0397614,16.7714687 46.1447598,16.8239679 46.1447598,16.9027167 L46.1447598,17.4539581 L46.066011,17.4802076 C46.066011,17.4802076 44.6747827,17.4539581 43.9397942,17.4539581 C43.2835545,17.4539581 42.3385692,17.4802076 42.3385692,17.4802076 L42.3123196,17.4539581 L42.3123196,17.138963 C42.3123196,16.7967087 42.28607,16.5099824 41.9185758,16.089989 L39.0048713,12.466536 C38.6111275,11.9405346 38.191134,11.8113058 37.6136431,11.8113058 L37.6136431,15.6992739 L37.6136431,15.6992739 L37.6136431,15.6992739 Z M51.7652008,15.6992739 C51.7652008,16.2767649 52.0276967,16.6180096 52.8676836,16.6967583 L53.4189249,16.7502671 C53.4976737,16.7502671 53.5764225,16.8017567 53.5764225,16.9067551 L53.5764225,17.4579964 L53.5501729,17.5115052 C53.5501729,17.5115052 51.5552041,17.4579964 50.7414668,17.4579964 C50.0064783,17.4579964 47.9590103,17.5115052 47.9590103,17.5115052 L47.9065111,17.4579964 L47.9065111,16.9067551 C47.9065111,16.8017567 47.9852598,16.7502671 48.0902582,16.7502671 L48.61525,16.6967583 C49.4814865,16.6180096 49.7439824,16.1980161 49.7439824,15.6992739 L49.7439824,6.95816051 C49.7439824,6.38167913 49.4289873,6.22216239 48.61525,6.14543282 L48.0902582,6.09091444 C47.9852598,6.09091444 47.9065111,6.06668405 47.9065111,5.98591609 L47.9065111,5.38116592 L47.9327607,5.32866674 C47.9327607,5.32866674 50.0064783,5.38116592 50.8202155,5.38116592 C51.5289545,5.38116592 53.5501729,5.32866674 53.5501729,5.32866674 L53.5764225,5.38116592 L53.5764225,5.9586569 C53.5764225,6.03740567 53.5239233,6.08990485 53.4189249,6.08990485 L52.8676836,6.14341362 C52.0539463,6.22115279 51.7652008,6.43215911 51.7652008,6.95816051 L51.7652008,15.6992739 L51.7652008,15.6992739 Z M57.4371314,7.00965009 C57.4371314,6.1959128 57.0958867,6.16966321 55.862156,6.09091444 C55.7046585,6.09091444 55.6784089,6.01317527 55.6784089,5.9596665 L55.6784089,5.35592593 L55.7309081,5.32967634 C56.1246519,5.32967634 57.6733777,5.38217552 58.4346158,5.38217552 C59.1696043,5.38217552 60.2195879,5.32967634 61.1908227,5.32967634 C64.9162453,5.32967634 65.5987346,7.16613803 65.5987346,8.5331359 C65.5987346,10.1091209 64.8374965,12.5755727 61.112074,12.5755727 C60.4558342,12.5755727 59.9308424,12.522064 59.4573402,12.3130768 L59.4573402,15.8285027 C59.4573402,16.4059937 59.7723353,16.5382512 60.6133318,16.6684896 L61.1393332,16.7472383 C61.2443315,16.7734879 61.3230803,16.8007471 61.3230803,16.9047359 L61.3230803,17.4559773 L61.2978403,17.5084764 C61.2978403,17.5084764 59.1978731,17.4559773 58.3841358,17.4559773 C57.6491473,17.4559773 55.6804281,17.5084764 55.6804281,17.5084764 L55.6541785,17.4559773 L55.6541785,16.9047359 C55.6541785,16.7997375 55.7066777,16.7734879 55.811676,16.7472383 L56.3629174,16.6684896 C57.1766547,16.5634912 57.4391506,16.3272449 57.4391506,15.8285027 L57.4371314,7.00965009 L57.4371314,7.00965009 L57.4371314,7.00965009 Z M59.4583498,11.5780883 C59.9833416,11.7890946 60.6395814,11.8143346 61.1645731,11.8143346 C62.7405581,11.8143346 63.4987674,10.8673302 63.4987674,8.84813098 C63.4987674,6.59066625 62.4750334,6.09192404 61.0333252,6.09192404 C59.7723353,6.09192404 59.4573402,6.32817035 59.4573402,7.01065969 L59.4583498,11.5780883 L59.4583498,11.5780883 L59.4583498,11.5780883 Z M76.958179,5.38116592 L72.0757553,5.38116592 L70.1857848,5.38116592 L67.5608259,5.32866674 L67.5345763,5.38116592 L67.5345763,5.9586569 C67.5345763,5.98490649 67.5345763,6.03740567 67.6920738,6.06365526 L68.2958144,6.11615444 C69.0308019,6.16865361 69.345798,6.32615115 69.345798,6.92989172 L69.345798,15.8810019 C69.345798,16.4059937 69.1095506,16.6159904 68.2958144,16.6947391 L67.6920738,16.7472383 C67.5608259,16.7472383 67.5345763,16.8259871 67.5345763,16.8784863 L67.5345763,17.4559773 L67.5608259,17.5084764 L70.1595352,17.4559773 L77.089427,17.4559773 C77.1419261,16.6159904 77.3256733,15.5397572 77.6406684,14.2535273 L76.9844286,14.1747785 C76.5644362,15.5135076 75.9869432,16.5634912 74.3857192,16.5634912 L72.1282545,16.5634912 C71.6557629,16.5634912 71.3670164,16.4322432 71.3670164,15.933501 L71.3670164,11.5498195 L73.3357356,11.5498195 C74.0182239,11.5498195 74.2544713,11.838565 74.3594696,12.3635568 L74.4907176,12.9410478 C74.4907176,13.0197966 74.5432168,13.0722957 74.6744647,13.0722957 L75.1207077,13.0722957 L75.1732069,13.0197966 C75.1207077,12.416056 75.0157094,11.8648146 75.0157094,11.2085749 C75.0157094,10.5785847 75.1207077,9.84359619 75.1732069,9.26610522 C75.1732069,9.21360604 75.1732069,9.18735645 75.1207077,9.18735645 L74.6744647,9.18735645 C74.5694663,9.18735645 74.5169672,9.23985563 74.5169672,9.3186044 L74.3594696,9.86984578 C74.2544713,10.3948376 74.0707231,10.7098327 73.3357356,10.7098327 L71.3670164,10.7098327 L71.3670164,6.82489336 C71.3670164,6.37865033 71.6295133,6.27365197 72.1282545,6.27365197 L74.2282217,6.27365197 C75.9081934,6.27365197 76.4069376,7.66488024 76.6694335,8.60986547 L77.3256733,8.5311167 C77.1419261,7.53363229 76.9844286,6.50989828 76.958179,5.38116592 M73.4932332,0.0524991797 L71.393266,3.3599475 C71.2357684,3.6224434 71.2357684,3.80619053 71.2357684,3.96368807 C71.2357684,4.12118561 71.4195156,4.27868315 71.6032627,4.27868315 C71.7870098,4.27868315 71.970758,4.1474352 72.3645008,3.75369135 L75.3832036,0.892486055 L75.3044549,0.603740567 C75.2519557,0.577490977 75.1994565,0.524991797 75.1469573,0.472492617 C74.9369606,0.288745488 74.5957149,4.4408921e-14 73.8607274,4.4408921e-14 C73.7294795,4.4408921e-14 73.5719819,0.0262495899 73.4932332,0.0524991797 M79.9915867,16.7502671 L80.5953272,16.6967583 C81.3838245,16.6180096 81.6463204,16.3817633 81.6463204,15.5690356 L81.6463204,6.90667093 C81.6463204,6.22216239 81.4605541,6.22216239 80.5953272,6.14543282 L80.0198555,6.09091444 C79.9148571,6.09091444 79.8340891,6.03841527 79.8340891,5.9596665 L79.8340891,5.38217552 L79.8593291,5.32967634 C79.8593291,5.32967634 82.1703026,5.38217552 82.6438048,5.38217552 C83.1405279,5.38217552 85.4262614,5.32967634 86.1087507,5.32967634 C90.4924322,5.32967634 92.6459082,8.05963368 92.6459082,11.5508291 C92.6459082,16.145517 89.3899494,17.5084764 86.4772546,17.5084764 C84.3772874,17.5084764 83.4595613,17.4559773 82.645824,17.4559773 C81.8573267,17.4559773 79.8623579,17.5084764 79.8623579,17.5084764 L79.8361083,17.4559773 L79.8361083,16.9047359 C79.8340891,16.8290159 79.8875979,16.7502671 79.9915867,16.7502671 L79.9915867,16.7502671 Z M85.8462548,16.7502671 C88.7327001,16.7502671 90.3621939,15.6750435 90.3621939,11.9980818 C90.3621939,9.26913402 89.7574437,6.09091444 85.3475126,6.09091444 C84.3237786,6.09091444 83.6675388,6.24841198 83.6675388,6.90667093 L83.6675388,15.5690356 C83.6675388,16.3020049 83.8502764,16.7502671 85.8462548,16.7502671 Z M98.8428306,15.6992739 C98.8428306,16.2767649 99.1053265,16.6180096 99.9453134,16.6967583 L100.496555,16.7502671 C100.575304,16.7502671 100.654052,16.8017567 100.654052,16.9067551 L100.654052,17.4579964 L100.627803,17.5115052 C100.627803,17.5115052 98.6328339,17.4579964 97.8201062,17.4579964 C97.0841081,17.4579964 95.0376497,17.5115052 95.0376497,17.5115052 L94.9841409,17.4579964 L94.9841409,16.9067551 C94.9841409,16.8017567 95.0628896,16.7502671 95.167888,16.7502671 L95.6938894,16.6967583 C96.5591163,16.6180096 96.8226218,16.1980161 96.8226218,15.6992739 L96.8226218,6.95816051 C96.8226218,6.38167913 96.5066171,6.22216239 95.6938894,6.14543282 L95.167888,6.09091444 C95.0628896,6.09091444 94.9841409,6.06668405 94.9841409,5.98591609 L94.9841409,5.38116592 L95.0103905,5.32866674 C95.0103905,5.32866674 97.0841081,5.38116592 97.8958261,5.38116592 C98.6045651,5.38116592 100.626793,5.32866674 100.626793,5.32866674 L100.652033,5.38116592 L100.652033,5.9586569 C100.652033,6.03740567 100.598524,6.08990485 100.494536,6.08990485 L99.9432942,6.14341362 C99.1295569,6.22115279 98.8408114,6.43215911 98.8408114,6.95816051 L98.8428306,15.6992739 L98.8428306,15.6992739 L98.8428306,15.6992739 Z M106.929723,16.6967583 L107.690962,16.7502671 C107.79596,16.7502671 107.900958,16.8290159 107.900958,16.9592542 L107.900958,17.4579964 L107.848459,17.5115052 C107.848459,17.5115052 104.987254,17.4579964 104.357264,17.4579964 C103.673765,17.4579964 101.993791,17.5115052 101.993791,17.5115052 L101.940282,17.4579964 L101.940282,16.9592542 C101.940282,16.8290159 102.019031,16.7502671 102.151289,16.7502671 C103.30728,16.6715184 103.961501,16.460512 104.696489,14.7805383 L110.522888,1.12974196 C110.810624,0.447252627 111.021631,0.183747129 111.416384,0.183747129 C111.782869,0.183747129 111.915126,0.447252627 112.124113,0.972244424 L117.505279,15.1995221 C117.873783,16.2242657 118.398775,16.617 119.448759,16.7219983 L119.737504,16.7472383 C119.868752,16.7472383 120,16.8259871 120,16.9582446 L120,17.4559773 L119.921251,17.5084764 C119.921251,17.5084764 117.900033,17.4559773 116.876299,17.4559773 C115.957563,17.4559773 113.384094,17.5084764 113.384094,17.5084764 L113.358854,17.4559773 L113.358854,16.9582446 C113.358854,16.8259871 113.411353,16.7472383 113.54462,16.7472383 L114.279609,16.6947391 C115.276083,16.617 115.645597,16.2999857 115.382091,15.5660068 L113.780866,11.1288165 L108.320952,11.1288165 C107.690962,11.1288165 107.533464,11.2338149 107.403226,11.5740499 L105.87974,15.3812501 C105.617244,16.039509 105.958489,16.6180096 106.929723,16.6967583 L106.929723,16.6967583 Z M113.360873,10.0273433 L110.814663,3.01971243 L110.762164,3.01971243 L108.137205,9.68710825 C108.032206,9.95061375 108.214944,10.0283529 108.792435,10.0283529 L113.360873,10.0283529 L113.360873,10.0273433 Z" id="wikipedia-wordmark-fr" fill="#000000" fill-rule="nonzero"></path>
    </g>
</svg>

<svg xmlns="http://www.w3.org/2000/svg" width="120" height="18"><path fill="#000" fill-rule="nonzero" d="M18.34.064h.573l.174.001.315.001h.37l.091.001h.171l.058.054v.5c0 .14-.078.208-.231.208-.753.035-.908.11-1.183.507-.15.217-.448.682-.756 1.204L15.28 7.483l-.073.154 3.23 6.61.195.054L23.72 2.225c.176-.486.149-.832-.078-1.035-.228-.198-.389-.315-.979-.339l-.477-.024a.28.28 0 0 1-.168-.06.174.174 0 0 1-.08-.147V.117l.073-.051h5.749l.059.051V.62c0 .136-.078.205-.232.205-.753.033-1.311.197-1.673.488-.362.294-.645.7-.848 1.225 0 0-1.793 4.105-3.54 8.077l-.267.609a884.49 884.49 0 0 1-2.473 5.585c-.613 1.167-1.216 1.06-1.746-.033-.664-1.367-2.042-4.382-3.054-6.61-.28.578-.588 1.21-.903 1.854l-.246.502c-.822 1.677-1.656 3.35-2.151 4.268-.715 1.242-1.304 1.08-1.772.032C7.287 12.984 3.948 6.246 2.376 2.47c-.291-.695-.51-1.141-.717-1.318C1.45.977 1.019.872.36.837.121.811 0 .752 0 .657V.131L.059.08l.23-.001h.303L.768.077h3.788L5.569.08h.739l.059.052v.501c0 .138-.088.205-.26.205l-.653.027c-.56.023-.84.191-.84.501 0 .144.06.379.19.695 1.252 3.05 5.576 12.167 5.576 12.167l.158.042 2.787-5.56-.558-1.235-1.916-3.766s-.37-.753-.497-1.003C9.512 1.035 9.531.947 8.68.835 8.44.804 8.318.773 8.318.655V.127L8.39.076l.703-.001h.198l1.943-.001h2.115l.131.043v.526c0 .12-.086.182-.26.182l-.36.051c-.908.071-.76.443-.156 1.645l1.838 3.761 2.034-4.055c.317-.692.278-.9.157-1.065l-.027-.034c-.08-.097-.351-.252-.94-.276l-.231-.025a.276.276 0 0 1-.167-.06.172.172 0 0 1-.079-.147v-.5l.072-.052c.298-.002.673-.004 1.08-.004Zm10.582 5.317c.709 0 2.73-.052 2.73-.052l.026.052v.578c0 .078-.052.13-.157.13l-.552.054c-.813.078-1.102.29-1.102.815V15.7c0 .578.262.919 1.102.998l.552.053c.078 0 .157.052.157.157v.551l-.026.054s-1.995-.054-2.809-.054c-.735 0-2.782.054-2.782.054l-.053-.054v-.551c0-.105.079-.157.184-.157l.525-.053c.866-.079 1.129-.499 1.129-.998V6.96c0-.577-.316-.737-1.129-.814l-.525-.054c-.105 0-.184-.024-.184-.105V5.38l.027-.052s2.073.052 2.887.052ZM37.614 15.7c0 .578.34.867 1.102.998l.289.053c.079.026.157.052.157.157v.551l-.026.054s-1.654-.054-2.441-.054c-.735 0-2.888.054-2.888.054l-.052-.054v-.551c0-.105.079-.157.184-.157l.525-.053c.787-.079 1.128-.499 1.128-.998V6.96c0-.577-.288-.737-1.128-.814l-.525-.054c-.105 0-.184-.024-.184-.105V5.38l.026-.052s2.153.052 2.966.052c.736 0 2.39-.052 2.39-.052l.025.052v.578c0 .078-.052.105-.157.13l-.289.054c-.814.157-1.102.29-1.102.815v3.964c.866 0 1.365-.445 2.52-1.68 1.05-1.156 1.863-2.125 1.863-2.625 0-.211-.236-.446-.76-.526-.106-.025-.158-.053-.158-.131v-.605l.026-.025s2.126.052 2.887.052c.683 0 1.838-.052 1.838-.052l.079.025v.605c0 .078-.08.13-.21.13-1.024.08-1.733.132-2.678 1.208l-2.257 2.598c-.447.474-.604.761-.604.972 0 .158.105.288.236.446l3.964 4.777c.315.366.945.525 1.47.629l.131.025c.079.026.184.079.184.158v.551l-.079.026s-1.391-.026-2.126-.026c-.656 0-1.601.026-1.601.026l-.027-.026v-.315c0-.342-.026-.629-.393-1.049l-2.914-3.623c-.394-.526-.814-.656-1.391-.656V15.7Zm14.151 0c0 .578.263.919 1.103.998l.55.053c.08 0 .158.052.158.157v.551l-.026.054s-1.995-.054-2.809-.054c-.735 0-2.782.054-2.782.054l-.052-.054v-.551c0-.105.078-.157.183-.157l.525-.053c.866-.079 1.129-.499 1.129-.998V6.96c0-.577-.315-.737-1.129-.814l-.525-.054c-.105 0-.183-.024-.183-.105V5.38l.026-.052s2.073.052 2.887.052c.709 0 2.73-.052 2.73-.052l.026.052v.578c0 .078-.052.13-.157.13l-.551.054c-.814.078-1.103.29-1.103.815V15.7Zm5.672-8.69c0-.813-.341-.84-1.575-.918-.157 0-.184-.078-.184-.131v-.604l.053-.026c.394 0 1.942.052 2.704.052.735 0 1.785-.052 2.756-.052 3.725 0 4.408 1.836 4.408 3.203 0 1.576-.762 4.043-4.487 4.043-.656 0-1.181-.054-1.655-.263v3.516c0 .577.315.71 1.156.84l.526.078c.105.026.184.054.184.158v.551l-.025.052s-2.1-.052-2.914-.052c-.735 0-2.704.052-2.704.052l-.026-.052v-.551c0-.105.053-.132.158-.158l.55-.079c.815-.105 1.077-.34 1.077-.84l-.002-8.818Zm2.021 4.57c.525.21 1.182.235 1.707.235 1.576 0 2.334-.947 2.334-2.966 0-2.257-1.024-2.756-2.466-2.756-1.26 0-1.576.236-1.576.919l.001 4.567Zm17.5-6.198H70.186L67.56 5.33l-.026.052v.578c0 .026 0 .078.157.105l.604.052c.735.053 1.05.21 1.05.814v8.951c0 .525-.236.735-1.05.814l-.604.052c-.131 0-.157.079-.157.131v.578l.026.052 2.599-.052h6.93c.052-.84.236-1.916.55-3.202l-.656-.08c-.42 1.34-.997 2.39-2.598 2.39h-2.258c-.472 0-.761-.132-.761-.63V11.55h1.969c.682 0 .918.289 1.023.814l.132.577c0 .079.052.131.183.131h.447l.052-.052c-.052-.604-.157-1.155-.157-1.811 0-.63.105-1.365.157-1.943 0-.052 0-.079-.052-.079h-.447c-.105 0-.157.053-.157.132l-.158.55c-.105.526-.288.84-1.023.84h-1.969V6.826c0-.446.263-.551.761-.551h2.1c1.68 0 2.179 1.39 2.441 2.336l.657-.079c-.184-.997-.342-2.021-.368-3.15M73.493.052l-2.1 3.308c-.157.262-.157.446-.157.604 0 .157.184.315.367.315.184 0 .368-.132.762-.525L75.383.892l-.079-.288c-.052-.027-.105-.079-.157-.132C74.937.29 74.596 0 73.861 0c-.132 0-.289.026-.368.052m6.499 16.698.603-.053c.789-.079 1.051-.315 1.051-1.128V6.907c0-.685-.185-.685-1.05-.762l-.576-.054c-.105 0-.186-.053-.186-.131v-.578l.025-.052s2.311.052 2.785.052c.497 0 2.782-.052 3.465-.052 4.383 0 6.537 2.73 6.537 6.22 0 4.596-3.256 5.958-6.169 5.958-2.1 0-3.017-.052-3.831-.052-.789 0-2.784.052-2.784.052l-.026-.052v-.551a.148.148 0 0 1 .156-.155Zm5.854 0c2.887 0 4.516-1.075 4.516-4.752 0-2.729-.605-5.907-5.014-5.907-1.024 0-1.68.157-1.68.816v8.662c0 .733.182 1.181 2.178 1.181Zm12.997-1.05c0 .577.262.918 1.102.997l.552.053c.078 0 .157.052.157.157v.551l-.026.054s-1.995-.054-2.808-.054c-.736 0-2.782.054-2.782.054l-.054-.054v-.551c0-.105.079-.157.184-.157l.526-.053c.865-.079 1.129-.499 1.129-.998V6.96c0-.577-.316-.737-1.13-.814l-.525-.054c-.105 0-.184-.024-.184-.105V5.38l.026-.052s2.074.052 2.886.052c.709 0 2.73-.052 2.73-.052l.026.052v.578c0 .078-.053.13-.157.13l-.552.054c-.813.078-1.102.29-1.102.815l.002 8.741Zm8.087.997.761.053c.105 0 .21.079.21.21v.498l-.053.054s-2.86-.054-3.49-.054c-.684 0-2.364.054-2.364.054l-.054-.054v-.499c0-.13.079-.209.211-.209 1.156-.078 1.81-.29 2.545-1.97l5.827-13.65c.288-.683.499-.946.893-.946.367 0 .5.263.708.788l5.381 14.228c.369 1.024.894 1.417 1.944 1.522l.289.025c.13 0 .262.079.262.211v.498l-.079.052s-2.021-.052-3.045-.052c-.918 0-3.492.052-3.492.052l-.025-.052v-.498c0-.132.052-.21.186-.21l.735-.053c.996-.078 1.366-.395 1.102-1.129l-1.601-4.437h-5.46c-.63 0-.788.105-.918.445l-1.523 3.807c-.263.659.078 1.237 1.05 1.316Zm6.43-6.67-2.545-7.007h-.053l-2.625 6.667c-.105.264.078.341.655.341h4.569Z"/></svg>
